X: 87
T: Master Pinto
R:Slow Air
C:Nathaniel Gow
S:MacDonald - Skye Collection
N:pg.161
M:2/4
L:1/8
K:C
D>E (G/F/)E/D/ | B>F (G/F/)E/D/ | D>E (G/F/)E/D/ | BDFd |
D>E (G/F/)E/D/ | B>F (G/F/)E/D/ | Cc c>d | e/d/c/B/ A/G/F/E/ |
D>E (G/F/)E/D/ | B>F (G/F/)E/D/ | D>E (G/F/)E/D/ | dDFd |
D>E (G/F/)E/D/ | B>F (G/F/)E/D/ | Cc c>d | e/d/c/B/ A/B/c/A/ ||
(B/c/)(d/e/) f>B | dB (g/f/)(e/d/) | (B/c/)(d/e/) f>B | dBd<b |
(B/c/)(d/e/) f>B | d>B (g/f/)(e/d/) | (c/d/)(e/f/) gc | eceg |
(B/c/)(d/e/) f>B | dBfd | (B/c/d/e/) fb | (ab) (fb) |
(3gbg (3fbf | (3ege (3dfd | c/d/e/f/ g>f | e/d/c/B/ A/G/F/E/ ||


